icons/bug.svg

<svg xmlns="http://www.w3.org/2000/svg" viewBox="0 0 24 24" fill="currentColor">
  <path d="M12 3.25c-3.44559 0-6.25 2.92287-6.25 6.65002V14.1c0 3.7272 2.8044 6.65 6.25 6.65 3.346 0 6.25-3.0232 6.25-6.65V9.90002C18.25 6.17287 15.4456 3.25 12 3.25Zm-7.74873 11c.07492 4.4048 3.4431 8 7.74873 8 4.2053 0 7.6698-3.6907 7.7486-8H21c.4142 0 .75-.3358.75-.75s-.3358-.75-.75-.75h-1.25v-1.5H21c.4142 0 .75-.3358.75-.75s-.3358-.75-.75-.75h-1.2513c-.0749-4.40475-3.4431-8-7.7487-8-4.30562 0-7.6738 3.59525-7.74872 8H3c-.41421 0-.75.3358-.75.75s.33579.75.75.75h1.25v1.5H3c-.41421 0-.75.3358-.75.75s.33579.75.75.75h1.25127ZM8.25 10c0-.41421.33579-.75.75-.75h6c.4142 0 .75.33579.75.75 0 .4142-.3358.75-.75.75H9c-.41421 0-.75-.3358-.75-.75ZM9 13.25c-.41421 0-.75.3358-.75.75s.33579.75.75.75h6c.4142 0 .75-.3358.75-.75s-.3358-.75-.75-.75H9Z"/>
</svg>

<svg width="24" height="24" viewBox="0 0 24 24" fill="none" xmlns="http://www.w3.org/2000/svg">
<path fill-rule="evenodd" clip-rule="evenodd" d="M12 3.25C8.55441 3.25 5.75 6.17287 5.75 9.90002V10.5V13.5V14.1C5.75 17.8272 8.5544 20.75 12 20.75C15.346 20.75 18.25 17.7268 18.25 14.1V13.5V10.5V9.90002C18.25 6.17287 15.4456 3.25 12 3.25ZM4.25127 14.25C4.32619 18.6548 7.69437 22.25 12 22.25C16.2053 22.25 19.6698 18.5593 19.7486 14.25H21C21.4142 14.25 21.75 13.9142 21.75 13.5C21.75 13.0858 21.4142 12.75 21 12.75H19.75V11.25H21C21.4142 11.25 21.75 10.9142 21.75 10.5C21.75 10.0858 21.4142 9.75 21 9.75H19.7487C19.6738 5.34525 16.3056 1.75 12 1.75C7.69438 1.75 4.3262 5.34525 4.25128 9.75H3C2.58579 9.75 2.25 10.0858 2.25 10.5C2.25 10.9142 2.58579 11.25 3 11.25H4.25V12.75H3C2.58579 12.75 2.25 13.0858 2.25 13.5C2.25 13.9142 2.58579 14.25 3 14.25H4.25127ZM8.25 10C8.25 9.58579 8.58579 9.25 9 9.25H15C15.4142 9.25 15.75 9.58579 15.75 10C15.75 10.4142 15.4142 10.75 15 10.75H9C8.58579 10.75 8.25 10.4142 8.25 10ZM9 13.25C8.58579 13.25 8.25 13.5858 8.25 14C8.25 14.4142 8.58579 14.75 9 14.75H15C15.4142 14.75 15.75 14.4142 15.75 14C15.75 13.5858 15.4142 13.25 15 13.25H9Z" fill="black"/>
</svg>
